X:914
T:Reel 914
M:4/4
K:Gmaj
L:1/8
B|cBcA BAGB|ADFD ADFA|D>G (3GFG DGGB|ADDC DGG2|dcBG GBdB|c2Bc ABcA|BDGF GBdg|fdcA BGG|c|B2BA BdcB|ADDE FGAF|BABA GFEF|DEFG ABcA|BAGA BdBG|AFDE FGAc|BABA GFGB|decA AGG2||dggf g2bg|fdcB ABcA|Gggf gbag|fdcA BGGc|BGBd g2de|fgab c'afc|Bdce dgeg|fdcA BGG2|
